X:1
T:The Fairy's Love Song
T:Cutting Bracken | Tha Mi Sgìth (I Am Tired)
C:Anonymous; arr. T. S. Macdonald
M:C
L:1/4
K:Am
%%staves { 1 2 }
V:1
"Am"A > A a2 | "G"g > e g2 | "Bm"e > d B > A | "G"G > A B < G |
"Am"A > A a2 | "G"g > e g2 | "Bm"e > d B < e | "A"A2 A2 :|
|: "Am"e > d B > A | "G"G > A B < G | "Am"e > d B > A | "G"B2 d2 |
"Am"e > d B > A | "G"G > A B < d | "Bm"e > d B < e | "A"A2 A2 :|]
V:2
L:1/1
"1"A, | "0"G, | "2"B, | "1"A, |
"1"A, | "0"G, | "2"B, | "1"A, :|
|:"1"A, | "0"G, | "1"A, | "0"G, |
"1"A, | "0"G, | "2"B, | "1"A, :|]

